X: 2150
T: Şedarabân Seyir
C: Erol Bingöl
O: Turkey
F: http://compmusic.upf.edu/node/140
N: sedaraban--seyir--sofyan--1--erol_bingol
N: makam= sedaraban
N: form= seyir
N: usul= sofyan = 4/4
M: 4/4
L: 1/16
K: C _7/8B _7/8e ^f ^c
Q: 1/4=60
%%MIDI tuningsystem comma53
c4 d4 d2e2 d2c2  | B3A B2c2 d8  | d2e2 f2g2 a2_b2 a2g2  | \
w:   |   |   | 
=c'_bag feed d8  | 
w:   | 
d2e2 d2c2 B4 d4  | c2B2 A2G2 F8  | G2A2 B2d2 c2B2 A2G2  | \
w:   |   |   | 
F3G FEED D8  | 
w:   | 
|


